X:1
T:Notre Dame, 87.87.87 D
T:Notre Dame, 87.87.87 D
T:John Robson Sweney, 1885
T:Public Domain Courtesy of the Cyber Hymnal™
C:John Robson Sweney, 1885
Z:Public Domain
Z:Courtesy of the Cyber Hymnal™
%%score 1 ( 2 3 )
L:1/8
Q:1/4=78
M:4/4
K:Ab
V:1 treble 
V:2 bass 
V:3 bass 
V:1
 [Ec]>[Fd] | [Ec][DB][DE][Ec] [DB][CA][CE][EA] | [DA][DG][DF][DG] ([DF][CE]) [Ec]>[Fd] | %3
 [Ec][DB][DE][Ec] [DB][CA][CE][EA] | [DA][DG][DF][DG] [CA]2 [CA]>[CA]!fine! | %5
 [=DA][DG][DF][Ac] [Ac][GB][EG][Ge] | [Fe][A=d][Ac][Ad] ([Ac][GB]) [EB]>[EB] | %7
 [=DB][DA][DF][Ac] [Ac][GB][EG][Ge] | [Fe][A=d][Ac][Ad] [Ge]2!D.C.! |] %9
V:2
 [A,,A,]>[A,,A,] | [E,A,][E,G,][E,G,]E, [A,,E,][A,,E,][A,,A,][A,,C] | %2
 [E,B,][E,B,][E,B,][E,B,] A,2 [A,,A,]>[A,,A,] | [E,A,][E,G,][E,G,]E, [A,,E,][A,,E,][A,,A,][A,,C] | %4
 [E,B,][E,B,][E,B,][E,B,] [A,,A,]2 [A,,A,]>[A,,A,] | %5
 [B,,F,][B,,F,][B,,B,][=D,B,] [E,B,][E,E][E,B,][E,B,] | B,B,[B,,B,][B,,F] [E,E]2 [E,G,]>[E,G,] | %7
 [B,,F,][B,,F,][B,,B,][=D,B,] E,[E,E][E,B,][E,B,] | B,B,[B,,B,][B,,B,] [E,B,]2 |] %9
V:3
 x2 | x3 E, x4 | x4 A,2 x2 | x3 E, x4 | x8 | x8 | B,B, x6 | x4 E, x3 | B,B, x4 |] %9

